src/assets/tokens/MODE.svg

<svg fill="none" height="256" viewBox="0 0 256 256" width="256" xmlns="http://www.w3.org/2000/svg"><circle cx="128" cy="128" fill="#dffe00" r="128"/><path d="m203.881 195.4h-29.649v-67.29l11.872-38.3752-8.412-2.9933-38.477 108.6585h-22.549l-38.4776-108.6585-8.4113 2.9933 11.8713 38.3752v67.29h-29.6484v-135h44.1444l27.3816 77.288v22.69h8.948v-22.69l27.382-77.288h44.144v135z" fill="#000"/></svg>

<svg width="256" height="256" viewBox="0 0 256 256" fill="none" xmlns="http://www.w3.org/2000/svg">
<circle cx="128" cy="128" r="128" fill="#DFFE00"/>
<path d="M203.881 195.4H174.232V128.11L186.104 89.7348L177.692 86.7415L139.215 195.4H116.666L78.1884 86.7415L69.7771 89.7348L81.6484 128.11V195.4H52V60.4H96.1444L123.526 137.688V160.378H132.474V137.688L159.856 60.4H204V195.4H203.881Z" fill="black"/>
</svg>
